X: 354
T: Croppies lie Down
%R: jig
Z: 2014 John Chambers <jc:trillian.mit.edu>
B: Preston "Twenty four Country Dances for the Year 1799" p.157 #2
F: http://www.vwml.org/browse/browse-collections-dance-tune-books/browse-prestons1799# 2014-8-10
N: The rhythms at the strains' boundaries aren't quite correct; not fixed.
M: 6/8
L: 1/8
K: G
g |\
dBG GFG | ABA (AB) d | e f/g/ e dBd |\
[1 gGG Gg e :|[2 gGG G2 :|
|: e |\
def gfg | efg a2f | gab efg |\
[1 dBG AGF :|[2 dBd G2 :|
% - - - - - - - - - - - - - - - - - - - - - - - - -
%%begintext align
%% Change sides and back again lead down
%% one Cu: up atain and cast off lead thro
%% the bottom Cu: cast up thro the top Cu:
%% cast off and Allemand
%%endtext
% - - - - - - - - - - - - - - - - - - - - - - - - -

%%sep 1 1 500
%%sep 1 1 500
